X:173
T:Dalkeith House
R:Reel
C:James MacDonald
B:The Athole Collection
M:C|
L:1/8
K:D
f|~d2 AB/c/ dAFD|Geed cAA=c|B2GB AdFA|GEAG FDD:|
g|f2df eace|dBed cAA=c|B2GB AdFA|GBAG FDDg|
fefd eace|dfed cAA=c|BABG FGA=c|Bgge fdd||

